!!!!SEGMENT: pl-kozmzk--mzk-m-137--002_cwiklicz-boleslaw-jan--oj-ty-chato-ty-pochyla.krn
!!!cenid: 18xx:2960
!!!COM: Ćwiklicz, Bolesław Jan
!!!COM-rismID: pe41023611
!!!CDT: ~1800-~1899
!!!CNT: Polish
!!!OTL: Oj, ty chato, ty pochyła
!!!PDT:
!!!AGN: Secular
!!!SMS-siglum: PL-KOZmzk
!!!SMS-shelfmark: mzk/m/137
!!!SMS-shelfwork: 002 W
!!!SMS-variant:
!!!SMS-altvar:
!!!NIFC-rismSourceID: 1001084050
!!!NIFC-islandoraID: pl-kozmzk:1738
!!!URL-pdf-islandora: https://repozytorium.nifc.pl/islandora/object/pl-kozmzk%3A1738/datastream/PDF/view
!!!URL-scan: https://polish.musicsources.pl/pl/lokalizacje/galeria/rekopisy/450 @EN{Scan on Polish Music Sources Website} @PL{Skany w portalu Dziedzictwo Muzyki Polskiej w otwartym dostępie}
!!!ONB-nifc:
!!!AIN: 2 male
!!!key:
**kern	**text	**dynam	**kern	**text	**text	**dynam
*part2	*part2	*part2	*part1	*part1	*part1	*part1
*staff2	*staff2	*	*staff1	*staff1	*staff1	*
*Imale	*	*	*Imale	*	*	*
*I"[Coro maschile]	*	*	*I"[Coro maschile]	*	*	*
*clefF4	*	*	*clefG2	*	*	*
*k[]	*	*	*k[]	*	*	*
*a:	*	*	*a:	*	*	*
*M3/4	*	*	*M3/4	*	*	*
=1	=1	=1	=1	=1	=1	=1
*^	*	*	*^	*	*	*
!	!	!	!	!LO:TX:a:t=Po polsku\na wolno.	!	!	!	!
!	!	!	!	!LO:TX:a:t=Słowa M. Konopnickiej	!	!	!	!
!	!	!	!	!LO:TX:a:t=2. Oj, ty chato, ty pochyła...	!	!	!	!
!	!	!	!	!LO:TX:a:t=Chórowi Towarzystwa Śpiewackiego "Echo" we Lwowie.	!	!	!	!
8E/L	8C\L	.	.	8.a/L	8a\L	Oj,	.	.
!	!	!	!	!	!	!	!	!LO:HP:b
8E/J	8BB\J	.	.	.	8g#X\J	ty	.	<
.	.	.	.	16b/Jk	.	.	.	.
.	.	.	.	(8qdd/	.	.	.	.
(8E/L	(8AA\L	.	.	(<8cc/L)	4a\	cha-	.	.
8F/J)	8D\J)	.	.	8b/J)	.	.	.	.
(8E/L	8C\L	.	.	(<8cc/L	4a\	-to,	.	.
8D/J)	8BB\J	.	.	8ff/J)	.	.	.	[[
=2	=2	=2	=2	=2	=2	=2	=2	=2
!	!	!	!	!	!	!	!	!LO:HP:b
8E/L	8C\L	.	.	8.ee/L	8a\L	ty	.	>
8E/J	8AA\J	.	.	.	8a\J	po-	.	.
.	.	.	.	16cc/Jk	.	.	.	.
(8F/L	(8D\L	.	.	4.a/	4.a\	-chy-	.	.
8G/J)	8E\J)	.	.	.	.	.	.	.
(8F/L	(8D\L	.	.	.	.	.	.	.
8E/J)	8AA\J)	.	.	8cc/	8a\	-ła,	.	]
=3	=3	=3	=3	=3	=3	=3	=3	=3
!	!	!	!	!LO:TX:a:t=muzyka B. Ćwiklicza	!	!	!	!
!	!	!	!	!	!	!	!	!LO:HP:b
8E/L	8GG#X\L	.	.	8.b/L	8e\L	si-	.	<
8E/J	8FF##X\J	.	.	.	8e\J	-łaś	.	.
.	.	.	.	16a#X/Jk	.	.	.	.
*	*	*	*	*	*	*	*above	*
(8E/L	(8GG#\L	.	.	8b/L	(>8e\L	prze-	(prze-	.
8D/J)	8BB\J)	.	.	8ff/J	8any\J)	.	-szła,	.
4E/	(8C\L	.	.	8ee/L	(8a\L	-szła,	znio-	[
.	8D\J)	.	.	8b/J	8g#X\J)	.	-sła	.
=4	=4	=4	=4	=4	=4	=4	=4	=4
!	!	!	!	!	!	!	!	!LO:HP:b
8F/L	4.AA\	.	.	(<8.dd/L	4.a\	znio-	si-	>
8E/J	.	.	.	.	.	.	.	.
.	.	.	.	16cc#X/Jk)	.	.	.	.
(8D#X/L	.	.	.	4.ccn/	.	-sła	-ła,)	.
8E/J)	8AA\L	.	.	.	8a\L	.	.	.
(8F/L	8AA\	.	.	.	8a\	si-	.	.
8E/J)	8AA\J	.	.	8r	8a\J	-ła,	.	]]
!!LO:PB:g=original
=5	=5	=5	=5	=5	=5	=5	=5	=5
!	!	!	!	!	!	!	!	!LO:HP:b
8A/L	8F\L	.	.	8.dd/L	8b\L	Aż	.	<
8A/J	8E\J	.	.	.	8cc\J	.	.	.
.	.	.	.	16ee/Jk	.	za-	.	.
4A/	(8D\L	.	.	(8ff/L	(8dd\L	-klę-	.	.
.	8C\J)	.	.	8ee/J)	8ee\J)	.	.	.
(8A/L	(8D\L	.	.	(8ff/L	4dd\	-snął	.	.
8B/J)	8F\J)	.	.	8aa/J)	.	.	.	[
=6	=6	=6	=6	=6	=6	=6	=6	=6
!	!	!	!	!	!	!	!	!LO:HP:b
8B/L	8E\L	.	.	8.aa/L	8ee\L	dach	.	>
8B/J	8D\J	.	.	.	8ee\J	.	.	.
.	.	.	.	16gg#X/Jk	.	Pia-	.	.
(8A/L	(8C\L	.	.	4.ee/	4.ee\	-sto-	.	.
8G#X/J)	8BB\J)	.	.	.	.	.	.	.
4A/	(8C\L	.	.	.	.	.	.	]
!	!	!	!	!	!	!	!	!LO:HP:b
.	8C#X\J)	.	.	8ggn/	8ee\	-wy	.	<
=7	=7	=7	=7	=7	=7	=7	=7	=7
8A/L	8D\L	.	.	8.gg/L	8dd\L	Nad	.	.
8A/J	8C\J	.	.	.	8dd\J	.	.	.
!	!	!	!	!	!	!	!	!LO:HP:b
.	.	.	.	16ff#X/Jk	.	nie-	.	[ >
(8G/L	(8BB-X\L	.	.	4.dd/	4.dd\	-do-	.	.
8F#X/J)	8AA\J)	.	.	.	.	.	.	.
!	!	!	!	!	!	!	!	!LO:HP:b
4G/	(8BB-\L	.	.	.	.	.	.	] <
.	8BBn\J)	.	.	8ffn/	8dd\	-lą	.	.
=8	=8	=8	=8	=8	=8	=8	=8	=8
8G/L	8C\L	.	.	8.ff/L	8cc\L	two-	.	.
!	!	!	!	!	!	!	!	!LO:HP:b
8G/J	8BB\J	.	.	.	8cc\J	.	.	[ >
.	.	.	.	16ee/Jk	.	-jej	.	.
4.F#X/	(8AA\L	.	.	4.ee/	4.cc\	gło-	.	.
.	8GG#X\J)	.	.	.	.	.	.	.
.	4AA\	.	.	.	.	.	.	.
8Fn/	.	.	.	8dd/	8b\	-wy,	.	]
!!LO:LB:g=original
=9	=9	=9	=9	=9	=9	=9	=9	=9
(8.E/L	4AA\	.	.	(8.cc/L	4a\	Nad	.	.
16D/Jk)	.	.	.	16b/Jk)	.	.	.	.
8C/L	(8AA\L	.	.	4a/	4a\	cię-	.	.
8E/J	8GG\J)	.	.	.	.	.	.	.
!	!	!	!LO:DY:rj	!	!	!	!	!LO:DY:rj
[4F/	4FF\	.	f	[4aa/	4cc\	-żkie-	.	f
=10	=10	=10	=10	=10	=10	=10	=10	=10
!	!	!	!	!	!	!	!	!LO:HP:b
8.F/L]	4BB\	.	.	8.aa/L]	4dd\	-mi	.	>
16A/Jk	.	.	.	(32gg/LL	.	.	.	.
.	.	.	.	32ff/JJJ)	.	.	.	.
4.G#X/	4.EE\ 4.E	.	.	4.ee/	4.b\	sny.	.	.
!	!	!	!	!	!	!	!	!LO:DY:b
8rB	8r;	.	.	8rdd;	8r	.	.	] pp
=11	=11	=11	=11	=11	=11	=11	=11	=11
!	!	!	!	!	!	!	!	!LO:HP:b
8E/L	8C\L	.	.	8.a/L	8a\L	A	.	<
8E/J	8BB\J	.	.	.	8g#X\J	.	.	.
.	.	.	.	16b/Jk	.	nie	.	.
.	.	.	.	(8qdd/	.	.	.	.
(8E/L	(8AA\L	.	.	(8cc/L)	4a\	by-	.	.
8F/J)	8D\J)	.	.	8b/J)	.	.	.	.
(8E/L	(8C\L	.	.	(8cc/L	4a\	-ło	.	.
8D/J)	8BB\J)	.	.	8ff/J)	.	.	.	[[
=12	=12	=12	=12	=12	=12	=12	=12	=12
!	!	!	!	!	!	!	!	!LO:HP:b
8E/L	8C\L	.	.	8.ee/L	8a\L	w_wie-	.	>
8E/J	8AA\J	.	.	.	8a\J	.	.	.
.	.	.	.	16cc/Jk	.	-ków	.	.
(8F/L	(8D\L	.	.	4.a/	4.a\	do-	.	.
8G/J)	8E\J)	.	.	.	.	.	.	.
(8F/L	(8D\L	.	.	.	.	.	.	]
8E/J)	8AA\J)	.	.	8cc/	8a\	-bie	.	.
!!LO:LB:g=original
=13	=13	=13	=13	=13	=13	=13	=13	=13
!	!	!	!	!	!	!	!	!LO:HP:b
8E/L	8GG#X\L	.	.	8.b/L	8e\L	Ni	.	<
8E/J	8FF##X\J	.	.	.	8e\J	.	.	.
.	.	.	.	16a#X/Jk	.	je-	.	.
(8E/L	(8GG#\L	.	.	8b/L	(>8e\L	-dne-	.	.
*	*	*	*	*	*	*	*above	*
8D/J)	8BB\J)	.	.	8ff/J	8any\J)	.	(go	.
4E/	(8C\L	.	.	8ee/L	(8a\L	-go	dzion-	[
.	8D\J)	.	.	8b/J	8g#X\J)	.	-ka	.
=14	=14	=14	=14	=14	=14	=14	=14	=14
!	!	!	!	!	!	!	!	!LO:HP:b
8F/L	4.AA\	.	.	(8.dd/L	4.a\	dzio-	to-	>
8E/J	.	.	.	.	.	.	.	.
.	.	.	.	16cc#X/Jk)	.	.	.	.
(8D#X/L	.	.	.	4.ccn/	.	-nka	-bie,)	.
8E/J)	8AA\L	.	.	.	8a\L	to-	.	]
(8F/L	8AA\	.	.	.	8a\	.	.	.
8E/J)	8AA\J	.	.	8r	8a\J	-bie	.	.
=15	=15	=15	=15	=15	=15	=15	=15	=15
!	!	!	!	!	!	!	!	!LO:HP:b
8B-X/L	8F\L	.	.	8.dd/L	8b-X\L	Ni	.	<
8B-/J	8G\J	.	.	.	8cc\J	.	.	.
.	.	.	.	16ee/Jk	.	wie-	.	.
4B-/	(8F\L	.	.	(8ff/L	(8dd\L	-czo-	.	.
.	8G\J)	.	.	8ee/J)	8cc\J)	.	.	.
4B-/	(8F\L	.	.	(8ff/L	(8dd\L	-ra,	.	.
.	8D\J)	.	.	8aa-X/J)	8ff\J)	.	.	[
=16	=16	=16	=16	=16	=16	=16	=16	=16
!	!	!	!	!	!	!	!	!LO:HP:b
8c/L	8E-X\L	.	.	8.aa-X/L	8ee-X\L	ni	.	>
8B-X/J	8E-\J	.	.	.	8ee-\J	.	.	.
.	.	.	.	16gg/Jk	.	za-	.	.
(8A-X/L	4E-\	.	.	4.ee-X/	(8cc\L	-ra-	.	.
!	!	!	!	!	!	!	!	!LO:HP:b
8G/J)	.	.	.	.	8b-X\J)	.	.	] <
(8G-X/L	4C\	.	.	.	(8an\L	.	.	.
8An/J)	.	.	.	8gg-X/	8ee-\J)	-nia	.	[[
!!LO:LB:g=original
=17	=17	=17	=17	=17	=17	=17	=17	=17
!	!	!	!	!	!	!	!	!LO:HP:b
8B-X/L	8D-X\L	.	.	8.gg-X/L	8dd-X\L	Bez	.	[ >
8A-X/J	8D-\J	.	.	.	8dd-\J	.	.	.
.	.	.	.	16ff/Jk	.	ścian	.	.
(8G-X/L	4D-\	.	.	4.dd-X/	(8b-X\L	two-	.	.
!	!	!	!	!	!	!	!	!LO:HP:b
8F/J)	.	.	.	.	8a-X\J)	.	.	] <
(8F-X/L	4BB-X\	.	.	.	(8gn\L	.	.	.
8Gn/J)	.	.	.	8ff-X/	8dd-\J)	-ich	.	[[
=18	=18	=18	=18	=18	=18	=18	=18	=18
8G-X/L	8C-X\L	.	.	8.ff-X/L	8dd-X\L	na-	.	[
!	!	!	!	!	!	!	!	!LO:HP:b
8G-/J	8C-\J	.	.	.	8cc-X\J	.	.	>
.	.	.	.	16ee-X/Jk	.	-rze-	.	.
8G-/L	8C-\L	.	.	8.ee-/L	8cc-\L	-ka-	.	.
8F#X/J	8BBn\J	.	.	.	8bn\J	.	.	.
.	.	.	.	16ddn/Jk	.	-nia,	.	.
8F#/L	8C#X\L	.	.	8.dd/L	8b\L	sta-	.	.
8F#/J	8C#\J	.	.	.	8a#X\J	.	.	.
.	.	.	.	16cc#X/Jk	.	-ra	.	.
=19	=19	=19	=19	=19	=19	=19	=19	=19
!	!	!	!	!LO:TX:a:i:t=ritardando	!	!	!	!
8F#X/L	8D#X\L	.	.	8.cc#X/L	8a#X\L	cha-	.	.
8F#/J	8D#\J	.	.	.	8an\J	.	.	.
.	.	.	.	16ccn/Jk	.	-to,	.	.
8F#/L	8D#\L	.	.	(>8.cc/L	8a\L	ty!	.	.
[8F#/J	[8D#\J	(Sta-	.	.	[8a\J	.	.	.
.	.	.	.	16b/Jk)	.	.	.	.
8F#/L]	8D#\L]	.	.	8.b/L	8a\L]	(Sta-	.	.
[8F#/J	[8D#\J	-ra	.	.	[8a\J	.	.	.
.	.	.	.	16cc/Jk	.	-ra	.	.
=20	=20	=20	=20	=20	=20	=20	=20	=20
8F#/L]	8D#\L]	.	.	8.cc/L	8a\L]	cha-	.	.
[8Fn/J	[8Dn\J	cha-	.	.	[8a\J	.	.	.
.	.	.	.	16b/Jk	.	-to,	.	.
8F/]	8D\]	.	.	2b/	4a\]	ty...)	.	.
4F/	4D\	-to	.	.	.	.	.	.
.	.	.	.	.	8g#X\	.	.	.
8E/	8D\	ty...)	.	.	8g#\	.	.	]]
!!LO:LB:g=original
=21	=21	=21	=21	=21	=21	=21	=21	=21
!	!	!	!	!LO:TX:a:i:t=a tempo	!	!	!	!LO:HP:b
!	!	!	!	!	!	!	!	!LO:DY:b:rj
8E/L	8C\L	.	.	8.a/L	8a\L	(Oj,	.	p <
8E/J	8BB\J	.	.	.	8g#X\J	.	.	.
.	.	.	.	16b/Jk	.	ty	.	.
.	.	.	.	(8qdd/	.	.	.	.
(8E/L	(8AA\L	.	.	(8cc/L)	4a\	cha-	.	.
8F/J)	8D\J)	.	.	8b/J)	.	.	.	.
(8E/L	(8C\L	.	.	(8cc/L	4a\	-to,	.	.
8D/J)	8BB\J)	.	.	8ff/J)	.	.	.	.
=22	=22	=22	=22	=22	=22	=22	=22	=22
!	!	!	!	!	!	!	!	!LO:HP:b
8E/L	8C\L	.	.	8.ee/L	8a\L	ty	.	[ >
8E/J	8AA\J	.	.	.	8a\J	.	.	.
.	.	.	.	16cc/Jk	.	po-	.	.
(8F/L	(8D\L	.	.	4.a/	4.a\	-chy-	.	.
8G/J)	8E\J)	.	.	.	.	.	.	.
(8F/L	(8D\L	.	.	.	.	.	.	.
8E/J)	8AA\J)	.	.	8cc/	8a\	-ła,	.	]
=23	=23	=23	=23	=23	=23	=23	=23	=23
!	!	!	!	!	!	!	!	!LO:HP:b
8E/L	8GG#X\L	.	.	8.b/L	8e\L	si-	.	<
8E/J	8FF##X\J	.	.	.	8e\J	łaś	.	.
.	.	.	.	16a#X/Jk	.	.	.	.
(8E/L	(8GG#\L	.	.	8b/L	(8e\L	prze-	(prze-	.
8D/J)	8BB\J)	.	.	8ff/J	8an\J)	.	-szła,	.
4E/	(8C\L	.	.	8ee/L	(8a\L	-szła,	znio-	[
.	8D\J)	.	.	8b/J	8g#X\J)	.	-słaś	.
=24	=24	=24	=24	=24	=24	=24	=24	=24
!	!	!	!	!	!	!	!	!LO:HP:b
8F/L	4.AA\	.	.	(8.dd/L	4.a\	znio-	si-	>
8E/J	.	.	.	.	.	.	.	.
.	.	.	.	16cc#X/Jk)	.	.	.	.
(8D#X/L	.	.	.	4.ccn/	.	.	-ła,)	.
8E/J)	8AA\L	.	.	.	8a\L	-słaś	.	]
(8F/L	8AA\	.	.	.	8a\	-si-	.	.
8E/J)	8AA\J	.	.	8r	8a\J	-ła,	.	.
!!LO:LB:g=original
=25	=25	=25	=25	=25	=25	=25	=25	=25
!	!	!	!	!	!	!	!	!LO:HP:b
8A/L	8F\L	.	.	8.dd/L	8b\L	Aż	.	<
8A/J	8E\J	.	.	.	8cc\J	za-	.	.
.	.	.	.	16ee/Jk	.	.	.	.
4A/	(>8D\L	.	.	(8ff/L	(8dd\L	-klę-	.	.
.	8C\J)	.	.	8ee/J)	8ee\J)	.	.	.
(8A/L	(8D\L	.	.	(8ff/L	4dd\	-snął	.	.
8B/J)	8F\J)	.	.	8aa/J)	.	.	.	.
=26	=26	=26	=26	=26	=26	=26	=26	=26
!	!	!	!	!	!	!	!	!LO:HP:b
8B/L	8E\L	.	.	8.aa/L	8ee\L	dach	.	[ >
8B/J	8D\J	.	.	.	8ee\J	Pia-	.	.
.	.	.	.	16gg#X/Jk	.	.	.	.
(8A/L	(8C\L	.	.	4.ee/	4.ee\	-sto-	.	.
8G#X/J)	8BB\J)	.	.	.	.	.	.	.
4A/	(8C\L	.	.	.	.	.	.	.
.	8C#X\J)	.	.	8ggn/	8ee\	-wy	.	]
=27	=27	=27	=27	=27	=27	=27	=27	=27
!	!	!	!	!	!	!	!	!LO:HP:b
8A/L	8D\L	.	.	8.gg/L	8dd\L	Nad	.	>
8A/J	8C\J	.	.	.	8dd\J	nie-	.	.
.	.	.	.	16ff#X/Jk	.	.	.	.
(8G/L	(8BB-X\L	.	.	4.dd/	4.dd\	-do-	.	.
8F#X/J)	8AA\J)	.	.	.	.	.	.	.
4G/	(>8BB-\L	.	.	.	.	.	.	.
!	!	!	!	!	!	!	!	!LO:HP:b
.	8BBn\J)	.	.	8ffn/	8dd\	-lą	.	] <
=28	=28	=28	=28	=28	=28	=28	=28	=28
8G/L	8C\L	.	.	8.ff/L	8cc\L	two-	.	.
8G/J	8BB\J	.	.	.	8cc\J	-jej	.	[
.	.	.	.	16ee/Jk	.	.	.	.
!	!	!	!	!	!	!	!	!LO:HP:b
4.F#X/	(>8AA\L	.	.	4.ee/	4.cc\	gło-	.	>
.	8GG#X\J)	.	.	.	.	.	.	.
.	4AA\	.	.	.	.	.	.	.
8Fn/	.	.	.	8dd/	8b\	-wy,	.	.
!!LO:PB:g=original
=29	=29	=29	=29	=29	=29	=29	=29	=29
8.E/L	4AA\	.	.	(8.cc/L	4a\	Nad	.	]
16D/Jk	.	.	.	16b/Jk)	.	.	.	.
(<8C/L	8AA\L	.	.	4a/	4a\	cię-	.	.
8E/J)	8GG\J	.	.	.	.	.	.	.
!	!	!	!	!	!	!	!	!LO:HP:b
!	!	!	!LO:DY:rj	!	!	!	!	!LO:DY:rj
[4F/	4FF\	.	f	[4aa/	4cc\	-żkie-	.	f >
=30	=30	=30	=30	=30	=30	=30	=30	=30
8.F/L]	4BB\	.	.	8.aa/L]	4dd\	-mi	.	.
16A/Jk	.	.	.	(32gg/LL	.	.	.	.
.	.	.	.	32ff/JJJ)	.	.	.	.
4G#X/	4.EE\ 4.E	.	.	4.ee/	4.b\	sny!	.	.
8ryy	.	.	.	.	.	.	.	.
8rA	8r	.	.	8rff	8r	.	.	]
=31	=31	=31	=31	=31	=31	=31	=31	=31
!	!	!	!	!	!	!	!	!LO:DY:a:rj
!	!	!	!	!	!	!	!	!LO:HP:b
8E/L	8C\L	.	.	8.a/L	8a\L	A	.	pp <
8E/J	8BB\J	.	.	.	8g#X\J	.	.	.
.	.	.	.	16b/Jk	.	nie	.	.
(8E/L	(8AA\L	.	.	(8cc/L	4a\	by-	.	.
8F/J)	8D\J)	.	.	8b/J)	.	.	.	.
(8E/L	(8C\L	.	.	(8cc/L	4a\	-ło	.	.
8D/J)	8BB\J)	.	.	8ff/J)	.	.	.	[
=32	=32	=32	=32	=32	=32	=32	=32	=32
!	!	!	!	!	!	!	!	!LO:HP:b
8E/L	8C\L	.	.	8.ee/L	8a\L	w_wie-	.	>
8E/J	8AA\J	.	.	.	8a\J	.	.	.
.	.	.	.	16cc/Jk	.	-ków	.	.
(8F/L	(8D\L	.	.	4.a/	4.a\	do-	.	.
8G/J)	8E\J)	.	.	.	.	.	.	.
(8F/L	(8D\L	.	.	.	.	.	.	.
8E/J)	8AA\J)	.	.	8cc/	8a\	-bie	.	]
!!LO:LB:g=original
=33	=33	=33	=33	=33	=33	=33	=33	=33
!	!	!	!	!	!	!	!	!LO:HP:b
8E/L	8GG#X\L	.	.	8.b/L	8e\L	Ni	.	<
8E/J	8FF##X\J	.	.	.	8e\J	je-	.	.
.	.	.	.	16a#X/Jk	.	dne-	.	.
(8E/L	(8GG#\L	.	.	8b/L	(>8e\L	.	(dne-	.
8D/J)	8BB\J)	.	.	8ff/J	8an\J)	-go	-go	.
4E/	(8C\L	.	.	8ee/L	(8a\L	dzio-	dzio-	[
.	8D\J)	.	.	8b/J	8g#X\J)	-nka	-nka	.
=34	=34	=34	=34	=34	=34	=34	=34	=34
!	!	!	!	!	!	!	!	!LO:HP:b
8F/L	4.AA\	.	.	(8.dd/L	4.a\	dzio-	to-	>
8E/J	.	.	.	.	.	.	.	.
.	.	.	.	16cc#X/Jk)	.	.	.	.
(8D#X/L	.	.	.	4.ccn/	.	.	-bie,)	.
8E/J)	8AA\L	.	.	.	8a\L	-nka	.	]
(8F/L	8AA\	.	.	.	8a\	to-	.	.
8E/J)	8AA\J	.	.	8r	8a\J	-bie,	.	.
=35	=35	=35	=35	=35	=35	=35	=35	=35
!	!	!	!	!	!	!	!	!LO:HP:b
8G-X/L	8D-X\L	.	.	8.b-X/L	8g-X\L	Ni	.	<
8G-/J	8E-X\J	.	.	.	8a-X\J	.	.	.
.	.	.	.	16cc/Jk	.	wie-	.	.
4G-/	(8D-\L	.	.	(8dd-X/L	(8b-\L	-czo-	.	.
.	8E-\J)	.	.	8cc/J)	8a-\J)	.	.	.
4G-/	(>8D-\L	.	.	(8dd-/L	(8b-\L	-ra	.	.
.	8BB-X\J)	.	.	8ff-X/J)	8dd-\J)	.	.	[
=36	=36	=36	=36	=36	=36	=36	=36	=36
!	!	!	!	!	!	!	!	!LO:HP:b
8G#X/L	8BBn\L	.	.	8.een/L	8bn\L	ni	.	>
8F#X/J	8BB\J	.	.	.	8b\J	.	.	.
.	.	.	.	16dd#X/Jk	.	za-	.	.
(8E/L	4BB\	.	.	4.bn/	(8g#X\L	-ra-	.	]
!	!	!	!	!	!	!	!	!LO:HP:b
8D#X/J)	.	.	.	.	8f\J)	.	.	<
(8Dn/L	4GG#X\	.	.	.	(8fn\L	.	.	.
8Fn/J)	.	.	.	8ddn/	8b\J)	-nia	.	[[
!!LO:LB:g=original
=37	=37	=37	=37	=37	=37	=37	=37	=37
!	!	!	!	!	!	!	!	!LO:HP:b
8Fn/L	8AA\L	.	.	8.dd/L	8a\L	Bez	.	>
8E/J	8AA\J	.	.	.	8a\J	.	.	.
.	.	.	.	16cc#X/Jk	.	ścian	.	.
(8D/L	4.AA\	.	.	4.a/	(>8fn\L	two-	.	.
8C#X/J)	.	.	.	.	8e\J)	.	.	]
(8D/L	.	.	.	.	(>8f\L	.	.	.
8D#X/J)	8AA\	.	.	8ccn/	8f#X\J)	ich	.	.
=38	=38	=38	=38	=38	=38	=38	=38	=38
!	!	!	!	!	!	!	!	!LO:HP:b
8Dn/L	8AA\L	.	.	8.cc/L	8fn\L	na-	.	>
8D/J	8AA\J	.	.	.	8f\J	.	.	.
.	.	.	.	16b/Jk	.	-rze-	.	.
(8E/L	(8GG#X\L	.	.	4.b/	(>8e\L	-ka-	.	.
8D/J)	8AA\J)	.	.	.	8f\J)	.	.	]
!	!	!	!	!	!	!	!	!LO:HP:b
4E/	(8GG#\L	.	.	.	(>8e\L	.	.	<
.	8AA\J)	.	.	8cc/	8a\J)	-nia,	.	.
=39	=39	=39	=39	=39	=39	=39	=39	=39
4A/	8.FF\L 8.F	.	.	(8.dd/L	4a\	Sta-	.	.
.	16D\Jk	.	.	16ff/Jk)	.	.	.	.
4A/	4C\	.	.	4ee/	4a\	-ra	.	[
!	!	!	!	!	!	!	!	!LO:HP:b
4F/	4D\	.	.	(4b/	4a\	cha-	.	>
=40	=40	=40	=40	=40	=40	=40	=40	=40
(8.E/L	(8E\L	.	.	8.dd/L)	4g#X\	-to	.	.
.	8EE\J)	.	.	.	.	.	.	.
16D/Jk)	.	.	.	(32cc/LL	.	.	.	.
.	.	.	.	32b/JJJ)	.	.	.	.
4.C/	4.AA\	.	.	4.a/	4.e\	ty!...	.	.
8rA	8r	.	.	8rff	8r	.	.	]
*v	*v	*	*	*	*	*	*	*
*	*	*	*v	*v	*	*	*
==	==	==	==	==	==	==
*-	*-	*-	*-	*-	*-	*-
!!!system-decoration: [(s1,s2)]
!!!RDF**kern: < = below
!!!RDF**kern: > = above
!!!ENC: Marcin Jachim
!!!END: 2021-08-11
!!!ENC: Marta Chmielewska
!!!END: 2021-09-09
